icons/icn_incidencia.svg

<svg width="24" xmlns="http://www.w3.org/2000/svg" height="24" id="screenshot-e387bb83-ae60-800e-8006-366ae6e63e48" viewBox="0 0 24 24" xmlns:xlink="http://www.w3.org/1999/xlink" fill="none" version="1.1"><g id="shape-e387bb83-ae60-800e-8006-366ae6e63e48"><g class="frame-container-wrapper"><g class="frame-container-blur"><g class="frame-container-shadows"><g fill="none"><g class="fills" id="fills-e387bb83-ae60-800e-8006-366ae6e63e48"><rect rx="0" ry="0" x="0" y="0" width="24" height="24" transform="matrix(1, 0, 0, 1, 0, 0)" class="frame-background"/></g><g class="frame-children"><g id="shape-e387bb83-ae60-800e-8006-366ae6e63e5f" rx="0" ry="0" style="fill: rgb(0, 0, 0);"><g id="shape-e387bb83-ae60-800e-8006-366ae6e63e60"><g class="fills" id="fills-e387bb83-ae60-800e-8006-366ae6e63e60"><path d="M11.048396110534668,8.699600219726562C11.048396110534668,8.172866821289062,11.474421501159668,7.7457427978515625,12.000056266784668,7.7457427978515625C12.525691032409668,7.7457427978515625,12.951716423034668,8.172866821289062,12.951716423034668,8.699600219726562L12.951716423034668,13.369644165039062C12.951716423034668,13.896377563476562,12.525691032409668,14.323501586914062,12.000056266784668,14.323501586914062C11.474421501159668,14.323501586914062,11.048396110534668,13.896377563476562,11.048396110534668,13.369644165039062L11.048396110534668,8.699600219726562L11.048396110534668,8.699600219726562" style="fill: rgb(0, 0, 0);"/></g></g><g id="shape-e387bb83-ae60-800e-8006-366ae6e63e61"><g class="fills" id="fills-e387bb83-ae60-800e-8006-366ae6e63e61"><path d="M12.000056266784668,15.277236938476562C11.474421501159668,15.277236938476562,11.048396110534668,15.704360961914062,11.048396110534668,16.231094360351562C11.048396110534668,16.757705688476562,11.474421501159668,17.184829711914062,12.000056266784668,17.184829711914062C12.525691032409668,17.184829711914062,12.951716423034668,16.757705688476562,12.951716423034668,16.231094360351562C12.951716423034668,15.704360961914062,12.525691032409668,15.277236938476562,12.000056266784668,15.277236938476562Z" style="fill: rgb(0, 0, 0);"/></g></g><g id="shape-e387bb83-ae60-800e-8006-366ae6e63e62"><g class="fills" id="fills-e387bb83-ae60-800e-8006-366ae6e63e62"><path d="M9.521052360534668,2.4417879581451416C10.617243766784668,0.5194246768951416,13.382868766784668,0.5194246768951416,14.479060173034668,2.4417879581451416L22.619686126708984,16.719009399414062C23.707332611083984,18.626602172851562,22.333065032958984,21.000015258789062,20.140682220458984,21.000015258789062L3.859431505203247,21.000015258789062C1.6672927141189575,21.000015258789062,0.2927809953689575,18.626602172851562,1.3804274797439575,16.719009399414062L9.521052360534668,2.4417879581451416ZM12.826472282409668,3.3883211612701416C12.460993766784668,2.7474520206451416,11.539118766784668,2.7474520206451416,11.173640251159668,3.3883211612701416L3.033015489578247,17.665420532226562C2.670466661453247,18.301284790039062,3.128718614578247,19.092422485351562,3.859431505203247,19.092422485351562L20.140682220458984,19.092422485351562C20.871395111083984,19.092422485351562,21.329647064208984,18.301284790039062,20.967098236083984,17.665420532226562L12.826472282409668,3.3883211612701416Z" fill-rule="evenodd" clip-rule="evenodd" style="fill: rgb(0, 0, 0);"/></g></g></g></g></g></g></g></g></g></svg>

<svg fill="none" viewBox="0 0 24 24"><g class="frame-container-wrapper"><g class="frame-container-blur"><g class="frame-container-shadows"><g class="fills"><rect width="24" height="24" class="frame-background" rx="0" ry="0"/></g><g fill="#000" class="frame-children"><path d="M11.0484 8.6996c0-.5267.426-.9539.9517-.9539.5256 0 .9516.4272.9516.9539v4.67c0 .5268-.426.9539-.9516.9539-.5257 0-.9517-.4271-.9517-.9539v-4.67M12 15.2772c-.5256 0-.9516.4272-.9516.9539 0 .5266.426.9537.9517.9537.5256 0 .9516-.427.9516-.9537s-.426-.9539-.9516-.9539Z" class="fills"/><path fill-rule="evenodd" d="M9.521 2.4418c1.0962-1.9224 3.8619-1.9224 4.958 0l8.1407 14.2772C23.7073 18.6266 22.333 21 20.1407 21H3.8594c-2.1921 0-3.5666-2.3734-2.479-4.281L9.5211 2.4418Zm3.3055.9465c-.3655-.6408-1.2874-.6408-1.6529 0L3.033 17.6654c-.3625.6359.0957 1.427.8264 1.427h16.2813c.7307 0 1.189-.7911.8264-1.427l-8.1406-14.277Z" class="fills" clip-rule="evenodd"/></g></g></g></g></svg>
